flaticon/interaction/folder-5.svg

<svg xmlns="http://www.w3.org/2000/svg" width="32" height="32" viewBox="0 0 24 24">
    <path d="M 23.253906 16.296875 L 20.144531 15.863281 L 18.757812 13.152344 C 18.621094 12.882812 18.179688 12.882812 18.042969 13.152344 L 16.65625 15.863281 L 13.542969 16.296875 C 13.390625 16.320312 13.265625 16.425781 13.21875 16.574219 C 13.171875 16.722656 13.214844 16.878906 13.328125 16.984375 L 15.570312 19.09375 L 15.039062 22.0625 C 15.011719 22.210938 15.074219 22.363281 15.195312 22.453125 C 15.316406 22.546875 15.480469 22.558594 15.613281 22.488281 L 18.398438 21.078125 L 21.1875 22.488281 C 21.242188 22.519531 21.304688 22.53125 21.367188 22.53125 C 21.449219 22.53125 21.535156 22.507812 21.605469 22.453125 C 21.726562 22.363281 21.785156 22.210938 21.761719 22.0625 L 21.230469 19.09375 L 23.472656 16.984375 C 23.585938 16.878906 23.628906 16.71875 23.582031 16.574219 C 23.535156 16.425781 23.40625 16.320312 23.253906 16.296875 Z M 20.527344 18.660156 C 20.425781 18.75 20.382812 18.886719 20.40625 19.019531 L 20.832031 21.414062 L 18.582031 20.273438 C 18.523438 20.246094 18.460938 20.230469 18.398438 20.230469 C 18.335938 20.230469 18.277344 20.246094 18.21875 20.273438 L 15.96875 21.414062 L 16.394531 19.019531 C 16.417969 18.886719 16.371094 18.75 16.273438 18.660156 L 14.480469 16.976562 L 16.972656 16.625 C 17.101562 16.609375 17.210938 16.527344 17.273438 16.414062 L 18.398438 14.210938 L 19.527344 16.414062 C 19.585938 16.527344 19.699219 16.609375 19.828125 16.625 L 22.316406 16.976562 Z M 20.527344 18.660156"/>
    <path d="M 10.609375 4.199219 L 8.726562 1.566406 L 8.605469 1.398438 L 0 1.398438 L 0 22.601562 L 12 22.601562 L 12 21.800781 L 0.800781 21.800781 L 0.800781 2.199219 L 8.195312 2.199219 L 10.195312 5 L 10.199219 5 L 12.074219 7.621094 C 12.152344 7.730469 12.277344 7.789062 12.398438 7.789062 L 12.398438 7.800781 L 23.199219 7.800781 L 23.199219 14.199219 L 24 14.199219 L 24 4.199219 Z M 12.613281 7 L 11.183594 5 L 23.199219 5 L 23.199219 7 Z M 12.613281 7"/>
</svg>

<svg xmlns="http://www.w3.org/2000/svg" width="32" height="32" viewBox="0 0 24 24">
    <path d="M23.254 16.297l-3.11-.434-1.386-2.71c-.137-.27-.578-.27-.715 0l-1.387 2.71-3.113.434a.402.402 0 0 0-.324.277.393.393 0 0 0 .11.41l2.241 2.11-.53 2.968a.4.4 0 0 0 .155.391.387.387 0 0 0 .418.035l2.785-1.41 2.79 1.41a.36.36 0 0 0 .18.043.387.387 0 0 0 .237-.078.408.408 0 0 0 .157-.39l-.532-2.97 2.243-2.109a.395.395 0 0 0 .109-.41.407.407 0 0 0-.328-.277zm-2.727 2.363a.387.387 0 0 0-.12.36l.425 2.394-2.25-1.14a.436.436 0 0 0-.184-.044.419.419 0 0 0-.18.043l-2.25 1.141.427-2.394a.397.397 0 0 0-.122-.36l-1.793-1.683 2.493-.352a.403.403 0 0 0 .3-.21l1.125-2.204 1.13 2.203a.396.396 0 0 0 .3.211l2.488.352zm0 0"/>
    <path d="M10.61 4.2L8.726 1.565l-.122-.168H0v21.204h12V21.8H.8V2.199h7.395l2 2.801h.004l1.875 2.621c.078.11.203.168.324.168v.012H23.2v6.398H24v-10zM12.612 7l-1.43-2H23.2v2zm0 0"/>
</svg>
